images/icon-articles.svg

<svg fill="none" height="45" viewBox="0 0 45 45" width="45" xmlns="http://www.w3.org/2000/svg"><g fill="#f46662"><path d="m9.57422 28.9628c0 .3965.32141.718.71808.718h24.4149c.3967 0 .7181-.3215.7181-.718 0-.3966-.3214-.7181-.7181-.7181h-24.4149c-.39667 0-.71808.3215-.71808.7181z"/><path d="m6.70166 31.8351c0 .3966.32142.7181.71809.7181h30.15955c.3967 0 .7181-.3215.7181-.7181s-.3214-.7181-.7181-.7181h-30.15955c-.39667 0-.71809.3215-.71809.7181z"/><path d="m34.7072 33.9894h-24.4149c-.39667 0-.71808.3215-.71808.718 0 .3966.32141.7181.71808.7181h24.4149c.3967 0 .7181-.3215.7181-.7181 0-.3965-.3214-.718-.7181-.718z"/><path d="m28.9625 36.8617h-12.9256c-.3966 0-.7181.3215-.7181.7181v2.8723c0 .3966.3215.7181.7181.7181h12.9256c.3966 0 .718-.3215.718-.7181v-2.8723c0-.3966-.3214-.7181-.718-.7181zm-.7181 2.8723h-11.4894v-1.4361h11.4894z"/><path d="m41.4093 18.7751h-10.2945c-.3966 0-.718.3216-.718.7181 0 1.7158-1.3959 3.1117-3.1118 3.1117h-9.5706c-1.7158 0-3.1117-1.3959-3.1117-3.1117 0-.3965-.3214-.7181-.7181-.7181h-10.29444c-.39667 0-.71809.3216-.71809.7181v22.1423c0 1.8552 1.50932 3.3645 3.36456 3.3645h32.52627c1.8552 0 3.3645-1.5093 3.3645-3.3645v-22.1423c0-.3965-.3214-.7181-.7181-.7181zm-.7181 22.8604c0 1.0633-.865 1.9283-1.9284 1.9283h-32.52617c-1.06334 0-1.92839-.865-1.92839-1.9283v-21.4242h8.91486c.3452 2.1678 2.2278 3.8298 4.4912 3.8298h9.5707c2.2635 0 4.1461-1.662 4.4912-3.8298h8.915z"/><path d="m8.37726 17.339c.39668 0 .71809-.3215.71809-.7181v-1.1968h26.80855v1.1968c0 .3966.3214.7181.7181.7181.3966 0 .718-.3215.718-.7181v-15.902815c0-.396574-.3214-.718085-.718-.718085h-28.24474c-.39667 0-.71808.321511-.71808.718085v15.902815c0 .3966.32141.7181.71808.7181zm27.52664-15.90283v12.55173h-26.80855v-12.55173z"/><path d="m5.50519 17.339c.39667 0 .71809-.3215.71809-.7181v-3.8298c0-.3966-.32142-.7181-.71809-.7181s-.71808.3215-.71808.7181v3.8298c0 .3966.32141.7181.71808.7181z"/><path d="m39.4945 17.339c.3966 0 .718-.3215.718-.7181v-3.8298c0-.3966-.3214-.7181-.718-.7181-.3967 0-.7181.3215-.7181.7181v3.8298c0 .3966.3214.7181.7181.7181z"/><path d="m19.4373 6.22341c.3967 0 .7181-.32152.7181-.71809v-.23936h1.6264v4.89214h-.2393c-.3967 0-.7181.3215-.7181.7181s.3214.7181.7181.7181h1.9149c.3966 0 .718-.3215.718-.7181s-.3214-.7181-.718-.7181h-.2394v-4.89214h1.6654v.23936c0 .39657.3214.71809.7181.71809.3966 0 .7181-.32152.7181-.71809v-.95745c0-.39657-.3215-.71808-.7181-.71808h-6.1642c-.3966 0-.7181.32151-.7181.71808v.95745c0 .39657.3215.71809.7181.71809z"/></g></svg>

<svg width="45" height="45" viewBox="0 0 45 45" fill="none" xmlns="http://www.w3.org/2000/svg">
<path d="M9.57422 28.9628C9.57422 29.3593 9.89563 29.6808 10.2923 29.6808H34.7072C35.1039 29.6808 35.4253 29.3593 35.4253 28.9628C35.4253 28.5662 35.1039 28.2447 34.7072 28.2447H10.2923C9.89563 28.2447 9.57422 28.5662 9.57422 28.9628Z" fill="#F46662"/>
<path d="M6.70166 31.8351C6.70166 32.2317 7.02308 32.5532 7.41975 32.5532H37.5793C37.976 32.5532 38.2974 32.2317 38.2974 31.8351C38.2974 31.4385 37.976 31.117 37.5793 31.117H7.41975C7.02308 31.117 6.70166 31.4385 6.70166 31.8351Z" fill="#F46662"/>
<path d="M34.7072 33.9894H10.2923C9.89563 33.9894 9.57422 34.3109 9.57422 34.7074C9.57422 35.104 9.89563 35.4255 10.2923 35.4255H34.7072C35.1039 35.4255 35.4253 35.104 35.4253 34.7074C35.4253 34.3109 35.1039 33.9894 34.7072 33.9894Z" fill="#F46662"/>
<path d="M28.9625 36.8617H16.0369C15.6403 36.8617 15.3188 37.1832 15.3188 37.5798V40.4521C15.3188 40.8487 15.6403 41.1702 16.0369 41.1702H28.9625C29.3591 41.1702 29.6805 40.8487 29.6805 40.4521V37.5798C29.6805 37.1832 29.3591 36.8617 28.9625 36.8617ZM28.2444 39.734H16.755V38.2979H28.2444V39.734Z" fill="#F46662"/>
<path d="M41.4093 18.7751H31.1148C30.7182 18.7751 30.3968 19.0967 30.3968 19.4932C30.3968 21.209 29.0009 22.6049 27.285 22.6049H17.7144C15.9986 22.6049 14.6027 21.209 14.6027 19.4932C14.6027 19.0967 14.2813 18.7751 13.8846 18.7751H3.59016C3.19349 18.7751 2.87207 19.0967 2.87207 19.4932V41.6355C2.87207 43.4907 4.38139 45 6.23663 45H38.7629C40.6181 45 42.1274 43.4907 42.1274 41.6355V19.4932C42.1274 19.0967 41.806 18.7751 41.4093 18.7751ZM40.6912 41.6355C40.6912 42.6988 39.8262 43.5638 38.7628 43.5638H6.23663C5.17329 43.5638 4.30824 42.6988 4.30824 41.6355V20.2113H13.2231C13.5683 22.3791 15.4509 24.0411 17.7143 24.0411H27.285C29.5485 24.0411 31.4311 22.3791 31.7762 20.2113H40.6912V41.6355Z" fill="#F46662"/>
<path d="M8.37726 17.339C8.77394 17.339 9.09535 17.0175 9.09535 16.6209V15.4241H35.9039V16.6209C35.9039 17.0175 36.2253 17.339 36.622 17.339C37.0186 17.339 37.34 17.0175 37.34 16.6209V0.718085C37.34 0.321511 37.0186 0 36.622 0H8.37726C7.98059 0 7.65918 0.321511 7.65918 0.718085V16.6209C7.65918 17.0175 7.98059 17.339 8.37726 17.339ZM35.9039 1.43617V13.9879H9.09535V1.43617H35.9039Z" fill="#F46662"/>
<path d="M5.50519 17.339C5.90186 17.339 6.22328 17.0175 6.22328 16.6209V12.7911C6.22328 12.3945 5.90186 12.073 5.50519 12.073C5.10852 12.073 4.78711 12.3945 4.78711 12.7911V16.6209C4.78711 17.0175 5.10852 17.339 5.50519 17.339Z" fill="#F46662"/>
<path d="M39.4945 17.339C39.8911 17.339 40.2125 17.0175 40.2125 16.6209V12.7911C40.2125 12.3945 39.8911 12.073 39.4945 12.073C39.0978 12.073 38.7764 12.3945 38.7764 12.7911V16.6209C38.7764 17.0175 39.0978 17.339 39.4945 17.339Z" fill="#F46662"/>
<path d="M19.4373 6.22341C19.834 6.22341 20.1554 5.90189 20.1554 5.50532V5.26596H21.7818V10.1581H21.5425C21.1458 10.1581 20.8244 10.4796 20.8244 10.8762C20.8244 11.2728 21.1458 11.5943 21.5425 11.5943H23.4574C23.854 11.5943 24.1754 11.2728 24.1754 10.8762C24.1754 10.4796 23.854 10.1581 23.4574 10.1581H23.218V5.26596H24.8834V5.50532C24.8834 5.90189 25.2048 6.22341 25.6015 6.22341C25.9981 6.22341 26.3196 5.90189 26.3196 5.50532V4.54787C26.3196 4.1513 25.9981 3.82979 25.6015 3.82979H19.4373C19.0407 3.82979 18.7192 4.1513 18.7192 4.54787V5.50532C18.7192 5.90189 19.0407 6.22341 19.4373 6.22341Z" fill="#F46662"/>
</svg>
